X:1
T:119 - Fidelidade
T:Letra: Isaac Watts (1674-1748)
T:Trad.: John J. Ransom (1853-1934)
T:Música: Asa Hull (1828 - ?)
M:3/4
L:1/4
Q:1/4=90
K:F
V:1
A | "C"A/G/ G "C7"B | "F"B/A/ Ac | c3/A/ F/A/ | "C"G z "F"A | B/c/ "Bb"d3/d/ | "F"d/c/ cc | "C"c3/c/ "C7"B/G/ | "F"F z A | "C"A/G/ G "C7"B | "F"B/A/ Ac | c3/A/ F/A/ | "C"G z "F"A | B/c/ "Bb"d3/d/ | "F"d/c/ cc | "C"c3/c/ "C7"B/G/ | "F"F z |]
w: 1.~Por meus de-li-tos ex-pi-rou Je-sus, a Vi-dae Luz; E-leo cas-ti-go meu le-vou Naen-san-guen-ta-da cruz.     Oh, faz-me for-teem con-fes-sar    A Ti, Je-sus, Se-nhor!                          Oh, faz-me pron-toa con-fi-ar    Em teu ex-cel-soa-mor!
w: 2.~Eeu hei de ter não fra-ca voz, Que tre-ma, ao con-fes-sar, A quem, com mor-te tãoa-troz, Mi-nhaal-ma quis sal-var?  
w: 3.~Pois eu de-se-joa-qui can-tar, Tão gran-de Sal-va-dor; E, quan-do for no céu mo-rar, Lou-vá-Lo-ei me-lhor.
W:			                    
W: 
W: 1. Por meus delitos expirou
W: Jesus, a Vida e Luz;
W: Ele o castigo meu levou
W: Na ensanguentada cruz.
W: 
W:    (Estribilho)
W:    Oh, faz-me forte em confessar
W:    A Ti, Jesus, Senhor!                      
W:    Oh, faz-me pronto a confiar
W:    Em teu excelso amor!
W: 
W:
W:
W: 2. E eu hei de ter não fraca voz,
W: Que trema, ao confessar,
W: A quem, com morte tão atroz,
W: Minha alma quis salvar?
W: 
W: 3. Pois eu desejo aqui cantar,
W: Tão grande Salvador;
W: E, quando for no céu morar,
W: Louvá-Lo-ei melhor.
W:         
W:





